images_elementary_svg/cmd/sl/lc_italic.svg

<svg height="24" width="24" xmlns="http://www.w3.org/2000/svg" xmlns:xlink="http://www.w3.org/1999/xlink"><radialGradient id="a" cx="13" cy="7.158687" gradientTransform="matrix(-2.8900222 .00000025 -.00000038 -4.4461878 49.453941 34.82886)" gradientUnits="userSpaceOnUse" r="4.498236"><stop offset="0" stop-color="#737373"/><stop offset=".26238" stop-color="#636363"/><stop offset=".704952" stop-color="#4b4b4b"/><stop offset="1" stop-color="#3f3f3f"/></radialGradient><linearGradient id="b" gradientUnits="userSpaceOnUse" x1="16" x2="16" y1="44" y2="41"><stop offset="0" stop-opacity="0"/><stop offset=".5"/><stop offset="1" stop-opacity="0"/></linearGradient><radialGradient id="c" cx="40" cy="43.5" gradientTransform="matrix(1 0 0 .75 -21.548444 9.875)" gradientUnits="userSpaceOnUse" r="2" xlink:href="#d"/><linearGradient id="d"><stop offset="0"/><stop offset="1" stop-opacity="0"/></linearGradient><radialGradient id="e" cx="9" cy="43.5" gradientTransform="matrix(1 0 0 .75 -4.59375 9.875)" gradientUnits="userSpaceOnUse" r="2" xlink:href="#d"/><g transform="matrix(.60518445 0 0 1 4.833406 -21.5)"><path d="m18.451556 41v3h.5c.831 0 1.5-.669 1.5-1.5s-.669-1.5-1.5-1.5z" fill="url(#c)" opacity=".2"/><path d="m3.8125 41c-.7790625 0-1.40625.627187-1.40625 1.40625v.1875c0 .779063.6271875 1.40625 1.40625 1.40625h.59375v-3z" fill="url(#e)" opacity=".2"/><path d="m4.40625 41h14.045305v3h-14.045305z" fill="url(#b)" opacity=".2"/></g><path d="m7.6659334 20.500511 3.1958266-16.001023h2.035698l-2.834654 14.184218h6.271262l-.361172 1.816805z" fill="url(#a)" stroke="#000" stroke-opacity=".6"/><path d="m10.861328 4.5-3.1953124 16h.2988282l2.8964842-14.5h1.736328l.298828-1.5zm-.5 14.183594-.298828 1.5h5.972656l.298828-1.5z" fill="#fff" opacity=".2"/></svg>

<?xml version="1.0" encoding="UTF-8" standalone="no"?>
<svg
   xmlns:dc="http://purl.org/dc/elements/1.1/"
   xmlns:cc="http://creativecommons.org/ns#"
   xmlns:rdf="http://www.w3.org/1999/02/22-rdf-syntax-ns#"
   xmlns:svg="http://www.w3.org/2000/svg"
   xmlns="http://www.w3.org/2000/svg"
   xmlns:xlink="http://www.w3.org/1999/xlink"
   xmlns:sodipodi="http://sodipodi.sourceforge.net/DTD/sodipodi-0.dtd"
   xmlns:inkscape="http://www.inkscape.org/namespaces/inkscape"
   height="24"
   width="24"
   version="1.1"
   id="svg39"
   sodipodi:docname="lc_italic.svg"
   inkscape:version="0.92.4 (unknown)"
   inkscape:export-filename="/home/rizmut/Dokumen/Rizmut/Github/libreoffice-style-elementary/images_elementary/cmd/sl/lc_italic.png"
   inkscape:export-xdpi="96"
   inkscape:export-ydpi="96">
  <metadata
     id="metadata45">
    <rdf:RDF>
      <cc:Work
         rdf:about="">
        <dc:format>image/svg+xml</dc:format>
        <dc:type
           rdf:resource="http://purl.org/dc/dcmitype/StillImage" />
        <dc:title />
      </cc:Work>
    </rdf:RDF>
  </metadata>
  <defs
     id="defs43">
    <radialGradient
       inkscape:collect="always"
       xlink:href="#e"
       id="radialGradient901"
       cx="13"
       cy="7.1586866"
       fx="13"
       fy="7.1586866"
       r="4.4982357"
       gradientTransform="matrix(-2.8900222,2.4709558e-7,-3.8014694e-7,-4.4461878,49.453941,34.82886)"
       gradientUnits="userSpaceOnUse" />
    <linearGradient
       inkscape:collect="always"
       xlink:href="#d"
       id="linearGradient926"
       gradientUnits="userSpaceOnUse"
       x1="16"
       y1="44"
       x2="16"
       y2="41" />
  </defs>
  <sodipodi:namedview
     pagecolor="#ffffff"
     bordercolor="#666666"
     borderopacity="1"
     objecttolerance="10"
     gridtolerance="10"
     guidetolerance="10"
     inkscape:pageopacity="0"
     inkscape:pageshadow="2"
     inkscape:window-width="1366"
     inkscape:window-height="714"
     id="namedview41"
     showgrid="true"
     inkscape:zoom="19.666667"
     inkscape:cx="-0.24123076"
     inkscape:cy="13.519082"
     inkscape:window-x="0"
     inkscape:window-y="28"
     inkscape:window-maximized="1"
     inkscape:current-layer="svg39">
    <inkscape:grid
       type="xygrid"
       id="grid852" />
  </sodipodi:namedview>
  <radialGradient
     id="a"
     cx="40"
     cy="43.5"
     gradientTransform="matrix(1,0,0,0.75,-21.548444,9.875)"
     gradientUnits="userSpaceOnUse"
     r="2"
     xlink:href="#b" />
  <linearGradient
     id="b">
    <stop
       offset="0"
       id="stop3" />
    <stop
       offset="1"
       stop-opacity="0"
       id="stop5" />
  </linearGradient>
  <radialGradient
     id="c"
     cx="9"
     cy="43.5"
     gradientTransform="matrix(1,0,0,0.75,-4.59375,9.875)"
     gradientUnits="userSpaceOnUse"
     r="2"
     xlink:href="#b" />
  <linearGradient
     id="d"
     gradientUnits="userSpaceOnUse"
     x1="16"
     x2="16"
     y1="44"
     y2="41">
    <stop
       offset="0"
       stop-opacity="0"
       id="stop9" />
    <stop
       offset=".5"
       id="stop11" />
    <stop
       offset="1"
       stop-opacity="0"
       id="stop13" />
  </linearGradient>
  <radialGradient
     id="e"
     cx="12.279661"
     cy="7.140932"
     gradientTransform="matrix(-3.1675784 .07135103 -.0749702 -3.3513607 51.71176 26.522026)"
     gradientUnits="userSpaceOnUse"
     r="5.015671">
    <stop
       offset="0"
       stop-color="#737373"
       id="stop16" />
    <stop
       offset=".26238"
       stop-color="#636363"
       id="stop18" />
    <stop
       offset=".704952"
       stop-color="#4b4b4b"
       id="stop20" />
    <stop
       offset="1"
       stop-color="#3f3f3f"
       id="stop22" />
  </radialGradient>
  <g
     transform="matrix(0.60518445,0,0,1,4.833406,-21.5)"
     id="g31">
    <path
       d="m 18.451556,41 v 3 h 0.5 c 0.831,0 1.5,-0.669 1.5,-1.5 0,-0.831 -0.669,-1.5 -1.5,-1.5 z"
       id="path25"
       style="opacity:0.2;fill:url(#a)"
       inkscape:connector-curvature="0" />
    <path
       d="m 3.8125,41 c -0.7790625,0 -1.40625,0.627187 -1.40625,1.40625 v 0.1875 C 2.40625,43.372813 3.0334375,44 3.8125,44 h 0.59375 v -3 z"
       id="path27"
       style="opacity:0.2;fill:url(#c)"
       inkscape:connector-curvature="0" />
    <path
       d="m 4.40625,41 h 14.045305 v 3 H 4.40625 Z"
       id="path29"
       style="opacity:0.2;fill:url(#linearGradient926)"
       inkscape:connector-curvature="0"
       sodipodi:nodetypes="ccccc" />
  </g>
  <g
     aria-label="L"
     style="font-style:normal;font-weight:normal;font-size:40px;line-height:1.25;font-family:sans-serif;letter-spacing:0px;word-spacing:0px;fill:url(#radialGradient901);fill-opacity:1;stroke:#000000;stroke-opacity:0.6"
     id="text856">
    <path
       d="M 7.6659334,20.500511 10.86176,4.499488 h 2.035698 l -2.834654,14.184218 h 6.271262 l -0.361172,1.816805 z"
       style="font-style:italic;font-variant:normal;font-weight:normal;font-stretch:normal;font-size:22.41456604px;font-family:'Droid Sans';-inkscape-font-specification:'Droid Sans';fill:url(#radialGradient901);fill-opacity:1;stroke:#000000;stroke-opacity:0.6"
       id="path835" />
  </g>
  <path
     style="font-style:normal;font-weight:normal;font-size:40px;line-height:1.25;font-family:sans-serif;letter-spacing:0px;word-spacing:0px;fill:#ffffff;fill-opacity:1;stroke:none;stroke-opacity:0.6;opacity:0.2"
     d="M 10.861328 4.5 L 7.6660156 20.5 L 7.9648438 20.5 L 10.861328 6 L 12.597656 6 L 12.896484 4.5 L 10.861328 4.5 z M 10.361328 18.683594 L 10.0625 20.183594 L 16.035156 20.183594 L 16.333984 18.683594 L 10.361328 18.683594 z "
     id="text958" />
</svg>
